X:11665
T:Ned Puw's farewell
R:Other
O:Wales
M:2/4
L:1/8
K:Bb
B2|\
f>e df|BB HA2|B2 f>e|dc BA/c/|c>A cf|f=e Hf2|\
f2 e>d|cB A>Az/:|
M:3/4
f2|\
f2d2 f2|e2c2 e2|d3f e2|d2Hc2 B2|\
c2d2 e2|d2c2 B2|e3d c2|B2HA2 Hf2|\
f2e2 d2|d2c2 B2|A2HB2z2||
